X:1
T:Du grønne glitrende tre, god dag
T:Du grønne glitrende tre, god dag
T:Edvard Grieg
T:Johan Krohn
C:Edvard Grieg
Z:Johan Krohn
%%score [ 1 2 3 4 ]
L:1/8
Q:1/4=82
M:6/8
K:Eb
V:1 treble nm="Soprano"
V:2 treble nm="Alto"
V:3 treble-8 nm="Tenor"
V:4 bass nm="Bass"
V:1
!mp!"^Andante semplice" B | G2 E!<(! G3/2 F/ E | F2!<)! c B2!>(! B | G2!>)! E!<(! G3/2 F/ E | %4
w: 1.Du|grøn- ne glit- ren- de|tre, god dag! Vel-|kom- men, du som vi|
w: 2.Den|før- ste jul i et|frem- med land sin|sto- re stjer- ne Vår-|
w: 3.Om|Je- sus- bar- net for-|tal- te mor så|mang- en af- ten vi|
 F2 c!<)! c!>(! B A!>)! |!<(! G2 B e!<)! d B | c2!>(! =A F2!>)! B |!<(! c2 d c B B!<)! | %8
w: ser så gjer- ne, med|ju- le- lys og med|nor- ske flagg og|høit i top- pen den|
w: her- re tend- te; den|skul- le vi- se vår|jord at han den|lil- le Je- sus til|
w: satt her hjem- me; vi|kan hans bud og hans|mil- de ord, vi|vet at al- dri vi|
"^rit." cf!>(! d c !fermata!B!>)!!p!"^a tempo" B |"^tranquillo" e2 d c3/2 B/ A | d2 c B3/2 A/ G | %11
w: blan- * ke stjer- ne! Ja,|den må skin- ne for|den skal min- ne oss|
w: ver- * den send- te. I|stjer- ne- glan- sen gikk|eng- le- dan- sen om|
w: dem _ må glem- me. Når|stjer- nen skin- ner, om|ham oss min- ner vårt|
!<(! c6- | c3!<)! d3 | e3- e2 z |] %14
w: om|_ vår|Gud. _|
w: Bet-|* le-|hem. _|
w: ju-|* le-|tre. _|
V:2
!mp! E | E2 E!<(! E3/2 D/ C | CD!<)! E D2!>(! B, | B,2!>)! C!<(! E3/2 D/ C | %4
w: 1.Du|grøn- ne glit- ren- de|tre, * god dag! Vel-|kom- men, du som vi|
w: 2.Den|før- ste jul i et|frem- * med land sin|sto- re stjer- ne Vår-|
w: 3.Om|Je- sus- bar- net for-|tal- * te mor så|mang- en af- ten vi|
 CD E!<)! E!>(! D D!>)! |!<(! E2 F F!<)! F F | F2!>(! E E2!>)! D |!<(! F2 F =E E E!<)! | %8
w: ser * så gjer- ne, med|ju- le- lys og med|nor- ske flagg og|høit i top- pen den|
w: her- * re tend- te; den|skul- le vi- se vår|jord at han den|lil- le Je- sus til|
w: satt * her hjem- me; vi|kan hans bud og hans|mil- de ord, vi|vet at al- dri vi|
 _E2!>(! F E !fermata!D!>)!!p! D |"^tranquillo" E2 E E3/2 E/ F | F2 F D3/2 D/ E |!<(! ((E3 =E3 | %12
w: blan- ke stjer- ne! Ja,|den må skin- ne for|den skal min- ne oss|om _|
w: ver- den send- te. I|stjer- ne- glan- sen gikk|eng- le- dan- sen om|Bet- *|
w: dem må glem- me. Når|stjer- nen skin- ner, om|ham oss min- ner vårt|ju- *|
 F3))!<)! F3 | E3- E2 z |] %14
w: _ vår|Gud. _|
w: * le-|hem. _|
w: * le-|tre. _|
V:3
!mp! G | B2 G!<(! B3/2 A/ G | AB!<)! c F2!>(! F | G2!>)! G!<(! B3/2 A/ G | AB c!<)! F!>(! F B!>)! | %5
w: 1.Du|grøn- ne glit- ren- de|tre, * god dag! Vel-|kom- men, du som vi|ser * så gjer- ne, med|
w: 2.Den|før- ste jul i et|frem- * med land sin|sto- re stjer- ne Vår-|her- * re tend- te; den|
w: 3.Om|Je- sus- bar- net for-|tal- * te mor så|mang- en af- ten vi|satt * her hjem- me; vi|
!<(! B2 B =A!<)! B d | c2!>(! c =A2!>)! B |!<(! =A2 A B B B!<)! | BG!>(! =A F !fermata!F!>)!!p! B | %9
w: ju- le- lys og med|nor- ske flagg og|høit i top- pen den|blan- * ke stjer- ne! Ja,|
w: skul- le vi- se vår|jord at han den|lil- le Je- sus til|ver- * den send- te. I|
w: kan hans bud og hans|mil- de ord, vi|vet at al- dri vi|dem _ må glem- me. Når|
"^tranquillo" B2 B c3/2 c/ c | A2 A B3/2 B/ B |!<(! (c3 B3 | A3)!<)! A3 | G3- G2 z |] %14
w: den må skin- ne for|den skal min- ne oss|om _|_ vår|Gud. _|
w: stjer- ne- glan- sen gikk|eng- le- dan- sen om|Bet- *|* le-|hem. _|
w: stjer- nen skin- ner, om|ham oss min- ner vårt|ju- *|* le-|tre. _|
V:4
!mp! E, | E,2 E,!<(! B,,3/2 B,,/ C, | A,,2!<)! A,, B,,2!>(! D, | E,2!>)! C,!<(! B,,3/2 B,,/ C, | %4
w: 1.Du|grøn- ne glit- ren- de|tre, god dag! Vel-|kom- men, du som vi|
w: 2.Den|før- ste jul i et|frem- med land sin|sto- re stjer- ne Vår-|
w: 3.Om|Je- sus- bar- net for-|tal- te mor så|mang- en af- ten vi|
 A,,2 A,,!<)! B,,!>(! B,, F,!>)! |!<(! E,2 D, C,!<)! B,, B,, | =A,,2!>(! C, F,2!>)! G, | %7
w: ser så gjer- ne, med|ju- le- lys og med|nor- ske flagg og|
w: her- re tend- te; den|skul- le vi- se vår|jord at han den|
w: satt her hjem- me; vi|kan hans bud og hans|mil- de ord, vi|
!<(! F,2 F, G, G, _G,!<)! | F,2!>(! F, B,, !fermata!B,,!>)!!p! A, | %9
w: høit i top- pen den|blan- ke stjer- ne! Ja,|
w: lil- le Je- sus til|ver- den send- te. I|
w: vet at al- dri vi|dem må glem- me. Når|
"^tranquillo" G,2 G, A,3/2 A,/ A, | F,2 F, G,3/2 G,/ G, |!<(! (A,3 G,3 | F,3)!<)! B,,3 | %13
w: den må skin- ne for|den skal min- ne oss|om _|_ vår|
w: stjer- ne- glan- sen gikk|eng- le- dan- sen om|Bet- *|* le-|
w: stjer- nen skin- ner, om|ham oss min- ner vårt|ju- *|* le-|
 E,3- E,2 z |] %14
w: Gud. _|
w: hem. _|
w: tre. _|

